public/assets/images/icons/white/zoom-out2.svg

<svg xmlns="http://www.w3.org/2000/svg" viewBox="0 0 54 54" fill="#fff"><path d="M51 18h-9v-6h-6V3h-3v9H12v21H3v3h9v6h6v9h3v-9h21V21h9zm-12-3v3h-3v-3zM15 39v-3h3v3zm24 0H21v-6h-6V15h18v6h6z"/></svg>

<svg id="icons" xmlns="http://www.w3.org/2000/svg" viewBox="0 0 54 54" fill="#ffffff"><g id="zoom-out2"><path d="M51,18H42V12H36V3H33v9H12V33H3v3h9v6h6v9h3V42H42V21h9ZM39,15v3H36V15ZM15,39V36h3v3Zm24,0H21V33H15V15H33v6h6Z"/></g></svg>
